X:1
T:Flow Gently, Sweet Afton
T:Music by J. E. SPILMAN
T:Words by ROBERT BURNS
T:Flow Gently, Sweet Afton
T:Copyright © 1880, O. Ditson &amp; Co.
T:Copyright © 1880, O. Ditson &amp; Co.
T:Copyright © 1880, O. Ditson &amp; Co.
T:Copyright © 1880, O. Ditson &amp; Co.
C:Music by J. E. SPILMAN
Z:Words by ROBERT BURNS
Z:Copyright © 1880, O. Ditson & Co.
%%score 1 { 2 | ( 3 4 ) }
L:1/8
Q:1/4=80
M:3/4
K:A
V:1 treble nm="Voice" snm="Voice"
V:2 treble nm="Piano" snm="Pno."
V:3 bass 
V:4 bass 
V:1
 z2 | z6 | z6 | z6 | z6 | z6 | z6 | z6 | z2"^3.""^2.""^1." z2 || E2 | A2 A2 (cB) | A2 A2 E2 | %12
w: |||||||||Flow|gent- ly, sweet _|Af- ton, a-|
w: |||||||||How|loft- y, sweet _|Af- ton, thy|
w: |||||||||Thy|crys- tal stream, _|Af- ton, how|
 F2 A2 F2 | E4 E2 | A2 A2 B2 | c2 c2 e2 | e2 c2 A2 | B4 E2 | A2 A2 (cB) | A2 A2 E2 | F2 d2 F2 | %21
w: mong thy green|braes, Flow|gent- ly, I’ll|sing thee a|song in thy|praise: My|Ma- ry’s a- *|sleep by thy|mur- mur- ing|
w: neigh- bor- ing|hills, Far-|mark’d with the|cours- es of|clear wind- ing|rills! There|dai- ly I _|wan- der as|noon ris- es|
w: love- ly it|glides, And|winds by the|cot where my|Ma- ry re-|sides; How|wan- ton thy _|wa- ters her|snow- y feet|
 E4 E2 | A2 A2 B2 | c2 !fermata!e3{/e} d | E2 E2 G2 | A2 z2 (GA) | B2 B2 e2 | B2 B2 (GA) | %28
w: stream; Flow|gent- ly, sweet|Af- ton, *|turb not her|dream. Thou _|stock- dove, whose|ech- o re- *|
w: high, My|flocks and my|Ma- ry’s *|cot in my|eye. How _|pleas- ant thy|banks and green _|
w: lave, As|gath- ’ring sweet|flow- erets *|stems thy clear|wave. Flow _|gent- ly, sweet|Af- ton, a- *|
 B2 A2 F2 | E4 (GA) | B2 B2 e2 | B2 B2 G2 | (AG) (AB) (c^d) | e4 f2 | e2 c2 (cB) | A2 A2 E2 | %36
w: sounds through the|glen, Ye _|wild whis- tling|black- birds in|yon _ thorn- * y _|den, Thou|green crest- ed _|lap- wing, thy|
w: val- leys be-|low, Where _|wild in the|wood- land the|prim- * ro- * ses _|blow; There|oft as mild _|ev- ’ning weeps|
w: mong thy green|braes, Flow _|gent- ly, sweet|riv- er, the|theme _ of _ my _|lays; My|Ma- ry’s a- *|sleep by thy|
 F2 d2 F2 | E4 E2 | A2 A2 B2 | c2 !fermata!e2 d2 | E2 E2 G2 | A4 z2 | z6 | z6 | z6 | z2 z2 x2 |] %46
w: scream- ing for-|bear, I|charge you dis-|turb not my|slum- ber- ing|fair.|||||
w: o- ver the|lea, The|sweet scent- ed|groves shade my|Ma- ry and|me.|||||
w: mu- mur- ing|stream, Flow|gent- ly, sweet|Af- ton, dis-|turb not her|dream.|||||
V:2
 e2 | a2 a2 (c'b) | a2 a2 e2 | f2 d'2 f2 | e2 c2 e2 | (agabc'd') | e'2 d'2 b2 | (efgabc') | a4 || %9
 z2 | z2 [CEA]2 [CEA]2 | z2 [CEA]2 [CEA]2 | z2 [DFA]2 [DFA]2 | z2 [CEA]2 [CEA]2 | %14
 z2 [CEA]2 [EGB]2 | z2 [CEA]2 [CEA]2 | z2 [CEA]2 [B,^DA]2 | [B,EG]4 z2 | z2 [CEA]2 [CEA]2 | %19
 z2 [CEA]2 [CEA]2 | z2 [DFA]2 [DFA]2 | z2 [CEA]2 [CEA]2 | [CEA]2 [CEA]2 [DEG]2 | %23
 [CEA]2 !fermata![EAc]2 [DFB]2 | [CEA]2 [CEA]2 [B,DEG]2 | [CEA]2 z2 z2 | [EG]B,[EG]B,[EG]B, | %27
 [EG]B,[EG]B,[EG]B, | [^DFA]B,[DFA]B,[DFA]B, | [EG]B,[EG]B,[EG]B, | [EG]B,[EG]B,[EG]B, | %31
 [EG]B,[EG]B,[EG]B, | [^DFA]B,[DFA]B,[DFA]B, | [B,EG]4 z2 | [CE]A,[CE]A,[CE]A, | %35
 [CE]A,[CE]A,[CE]A, | [DF]A,[DF]A,[DF]A, | [CE]A,[CE]A,[CE]A, | [CEA]2 [CEA]2 G2 | %39
 [CEA]2 !fermata![EAc]2 [DFB]2 | [CEA]2 [CEA]2 [B,DEG]2 | [CEA]4 e2 |!f! (agabc'd') | e'2 d'2 b2 | %44
 (efgabc') | a4 x2 |] %46
V:3
 z2 | A,ECECE | A,ECECE | A,FDFDF | A,ECECE | C,A,E,A,E,A, | D,B,F,B,F,B, | E,DB,DB,D | %8
 [A,C]2 A,,2 || z2 | [A,,A,]2 z2 z2 | [A,,A,]2 z2 z2 | [D,,D,]2 z2 z2 | A,2 z2 z2 | %14
 [A,,A,]2 z2 z2 | [A,,A,]2 z2 z2 | [A,,A,]2 z2 [F,,F,]2 | [E,,E,]4 z2 | [A,,A,]2 z2 z2 | %19
 [A,,A,]2 z2 z2 | [D,,D,]2 z2 z2 | [A,,A,]2 z2 z2 | A,,2 C,2 E,2 | A,2 !fermata!A,,2 D,2 | %24
 E,2 E,2 E,2 | A,,2 z2 z2 | [E,,E,]6 | [E,,E,]6 | [B,,,B,,]6 | [E,,E,]6 | [E,,E,]6 | [E,,E,]6 | %32
 [B,,,B,,]6 | [E,,E,]4 z2 | [A,,,A,,]2 z2 z2 | [A,,,A,,]2 z2 z2 | [D,,D,]2 z2 z2 | %37
 [A,,,A,,]2 z2 z2 | A,,2 C,2 E,2 | A,2 !fermata!A,,2 D,2 | E,2 E,2 E,,2 | A,,4 z2 | C,A,E,A,E,A, | %43
 D,B,F,B,F,B, | E,DB,DB,D | [A,C]2 A,,2 x2 |] %46
V:4
 x2 | A,6 | A,6 | A,6 | A,6 | C,6 | D,6 | E,6 | x4 || x2 | x6 | x6 | x6 | x6 | x6 | x6 | x6 | x6 | %18
 x6 | x6 | x6 | x6 | x6 | x6 | x6 | x6 | x6 | x6 | x6 | x6 | x6 | x6 | x6 | x6 | x6 | x6 | x6 | %37
 x6 | x6 | x6 | x6 | x6 | C,6 | D,6 | E,6 | x6 |] %46

